data/moderustic.svg

<svg width="73.668" height="17.5" viewBox="0 0 73.668 17.5" xmlns="http://www.w3.org/2000/svg"><path transform="translate(0 14) scale(.014 -.014)" d="M87 700H177L444 177L711 700H801V0H711V525L466 50H422L177 525V0H87Z"/><path transform="translate(12.432 14) scale(.014 -.014)" d="m283-20q-76 0-129 32t-80.5 93.5-27.5 149.5q0 83 27.5 142.5t81 91 129.5 31.5q123 0 185.5-70t62.5-195q0-132-63-203.5t-186-71.5zm2 70q80 0 118.5 50t38.5 153q0 98-38.5 147.5t-116.5 49.5q-77 0-114-47.5t-37-147.5q0-102 37-153.5t112-51.5z"/><path transform="translate(20.524 14) scale(.014 -.014)" d="m278-20q-71 0-122 36.5t-78.5 98.5-27.5 140 25.5 137.5 75 93.5 121.5 34q92 0 142-70t50-195q0-133-48-204t-138-71zm9 70q45 0 80 27.5t54.5 74.5 19.5 105q0 56-20 99.5t-55 68.5-80 25q-71 0-108.5-51t-37.5-143q0-94 39.5-150t107.5-56zm155-50v750h90v-750z"/><path transform="translate(28.882 14) scale(.014 -.014)" d="m281-20q-70 0-122.5 30.5t-82 91-29.5 149.5q0 132 61 200.5t169 68.5q74 0 126-32.5t77.5-95.5 19.5-155h-363q0-81 35.5-134t109.5-53q43 0 79 19t62 54l53-53q-30-40-79.5-65t-115.5-25zm-140 316h266q-7 77-41 115.5t-89 38.5-92-38.5-44-115.5z"/><path transform="translate(36.582 14) scale(.014 -.014)" d="m84 500h90v-115q13 40 37.5 70t62.5 47 89 18v-70q-56 0-92.5-20t-57.5-53-30-72.5-9-78.5v-226h-90z"/><path transform="translate(42.322 14) scale(.014 -.014)" d="m166 500v-316q0-72 34-103t91-31q58 0 90 32t32 102v316h90v-315q0-60-25-106t-72.5-72.5-115.5-26.5q-67 0-115 25.5t-73.5 72-25.5 107.5v315z"/><path transform="translate(50.442 14) scale(.014 -.014)" d="m112 123q26-33 62.5-53t81.5-20q44 0 70 19t26 51q0 30-27 53t-88 39q-84 22-126 63.5t-42 98.5q0 41 21.5 74t60.5 52.5 92 19.5q63 0 112-26t78-64l-53-53q-25 33-60.5 53t-72.5 20-62.5-19.5-25.5-53.5q0-32 28.5-58t99.5-45q73-21 114-55.5t41-88.5q0-43-25-77t-68-53.5-98-19.5q-64 0-113.5 26.5t-78.5 63.5z"/><path transform="translate(57.26 14) scale(.014 -.014)" d="m349 6q-38-17-61-21.5t-43-4.5q-67 0-96 38t-29 114v488h90v-479q0-55 9.5-71.5t34.5-16.5q19 0 40 5.5t37 14.5zm-336 494h332v-70h-332z"/><path transform="translate(62.79 14) scale(.014 -.014)" d="m91 500h90v-500h-90zm-7 146q0 12 6 23.5t18 19 29 7.5q26 0 39-15.5t13-34.5-13-35.5-39-16.5q-17 0-29 8t-18 20-6 24z"/><path transform="translate(66.598 14) scale(.014 -.014)" d="m477 70q-31-40-83.5-65t-121.5-25q-108 0-167 71.5t-59 203.5q0 125 58.5 195t166.5 70q67 0 118-25t82-65l-53-53q-27 35-64.5 54t-79.5 19q-70 0-104-47.5t-34-147.5q0-102 34-153.5t102-51.5q44 0 84.5 19t67.5 54z"/></svg>

<?xml version="1.0" encoding="utf-8" ?>
<svg baseProfile="tiny" height="100%" version="1.2" width="100%" xmlns="http://www.w3.org/2000/svg" xmlns:ev="http://www.w3.org/2001/xml-events" xmlns:xlink="http://www.w3.org/1999/xlink"><defs /><g><path d="M87 700H177L444 177L711 700H801V0H711V525L466 50H422L177 525V0H87Z" transform="translate(0.0, 72) scale(0.072, -0.072)" /><path d="M283 -20Q207 -20 154.0 12.0Q101 44 73.5 105.5Q46 167 46 255Q46 338 73.5 397.5Q101 457 154.5 488.5Q208 520 284 520Q407 520 469.5 450.0Q532 380 532 255Q532 123 469.0 51.5Q406 -20 283 -20ZM285 50Q365 50 403.5 100.0Q442 150 442 253Q442 351 403.5 400.5Q365 450 287 450Q210 450 173.0 402.5Q136 355 136 255Q136 153 173.0 101.5Q210 50 285 50Z" transform="translate(63.93599999999999, 72) scale(0.072, -0.072)" /><path d="M278 -20Q207 -20 156.0 16.5Q105 53 77.5 115.0Q50 177 50 255Q50 333 75.5 392.5Q101 452 150.5 486.0Q200 520 272 520Q364 520 414.0 450.0Q464 380 464 255Q464 122 416.0 51.0Q368 -20 278 -20ZM287 50Q332 50 367.0 77.5Q402 105 421.5 152.0Q441 199 441 257Q441 313 421.0 356.5Q401 400 366.0 425.0Q331 450 286 450Q215 450 177.5 399.0Q140 348 140 256Q140 162 179.5 106.0Q219 50 287 50ZM442 0V750H532V0Z" transform="translate(105.55199999999999, 72) scale(0.072, -0.072)" /><path d="M281 -20Q211 -20 158.5 10.5Q106 41 76.5 101.5Q47 162 47 251Q47 383 108.0 451.5Q169 520 277 520Q351 520 403.0 487.5Q455 455 480.5 392.0Q506 329 500 237H137Q137 156 172.5 103.0Q208 50 282 50Q325 50 361.0 69.0Q397 88 423 123L476 70Q446 30 396.5 5.0Q347 -20 281 -20ZM141 296H407Q400 373 366.0 411.5Q332 450 277 450Q222 450 185.0 411.5Q148 373 141 296Z" transform="translate(148.536, 72) scale(0.072, -0.072)" /><path d="M84 500H174V385Q187 425 211.5 455.0Q236 485 274.0 502.0Q312 519 363 520V450Q307 450 270.5 430.0Q234 410 213.0 377.0Q192 344 183.0 304.5Q174 265 174 226V0H84Z" transform="translate(188.136, 72) scale(0.072, -0.072)" /><path d="M166 500V184Q166 112 200.0 81.0Q234 50 291 50Q349 50 381.0 82.0Q413 114 413 184V500H503V185Q503 125 478.0 79.0Q453 33 405.5 6.5Q358 -20 290 -20Q223 -20 175.0 5.5Q127 31 101.5 77.5Q76 124 76 185V500Z" transform="translate(217.656, 72) scale(0.072, -0.072)" /><path d="M112 123Q138 90 174.5 70.0Q211 50 256 50Q300 50 326.0 69.0Q352 88 352 120Q352 150 325.0 173.0Q298 196 237 212Q153 234 111.0 275.5Q69 317 69 374Q69 415 90.5 448.0Q112 481 151.0 500.5Q190 520 243 520Q306 520 355.0 494.0Q404 468 433 430L380 377Q355 410 319.5 430.0Q284 450 247 450Q210 450 184.5 430.5Q159 411 159 377Q159 345 187.5 319.0Q216 293 287 274Q360 253 401.0 218.5Q442 184 442 130Q442 87 417.0 53.0Q392 19 349.0 -0.5Q306 -20 251 -20Q187 -20 137.5 6.5Q88 33 59 70Z" transform="translate(259.416, 72) scale(0.072, -0.072)" /><path d="M349 6Q311 -11 288.0 -15.5Q265 -20 245 -20Q178 -20 149.0 18.0Q120 56 120 132V620H210V141Q210 86 219.5 69.5Q229 53 254 53Q273 53 294.0 58.5Q315 64 331 73ZM13 500H345V430H13Z" transform="translate(294.48, 72) scale(0.072, -0.072)" /><path d="M91 500H181V0H91ZM84 646Q84 658 90.0 669.5Q96 681 108.0 688.5Q120 696 137 696Q163 696 176.0 680.5Q189 665 189 646Q189 627 176.0 610.5Q163 594 137 594Q120 594 108.0 602.0Q96 610 90.0 622.0Q84 634 84 646Z" transform="translate(322.92, 72) scale(0.072, -0.072)" /><path d="M477 70Q446 30 393.5 5.0Q341 -20 272 -20Q164 -20 105.0 51.5Q46 123 46 255Q46 380 104.5 450.0Q163 520 271 520Q338 520 389.0 495.0Q440 470 471 430L418 377Q391 412 353.5 431.0Q316 450 274 450Q204 450 170.0 402.5Q136 355 136 255Q136 153 170.0 101.5Q204 50 272 50Q316 50 356.5 69.0Q397 88 424 123Z" transform="translate(342.504, 72) scale(0.072, -0.072)" /></g></svg>
